X:1
T:Anchored, 87.87 D
T:Anchored, 87.87 D
T:George Crawford Hugg, 1898
T:Public Domain Courtesy of the Cyber Hymnal™
C:George Crawford Hugg, 1898
Z:Public Domain
Z:Courtesy of the Cyber Hymnal™
%%score ( 1 2 ) 3
L:1/8
Q:1/4=103
M:4/4
K:D
V:1 treble 
V:2 treble 
V:3 bass 
V:1
 [FA]3 [FA] [^E^G][FA][=GB][FA] | [FA][DF]- [DF]4 z2 | [CA]3 [CE] [C^D][CE][CA][CG] | [DF]6 z2 | %4
 [FA]3 [FA] [^E^G][FA][=GB][FA] | [FA][DF]- [DF]4 z2 | [DE]3 [DF] [D^G][DA][DB][Ec] | [CA]6 z2 | %8
 [Fd]3 [Ac] [GB][Bd][Ac][GB] | [GB][FA]- [FA]4 z2 | [Fd]3 [Ac] [GB][Bd][DA][DF] | [CE]6 z2 | %12
 [DF]3 [DE] D[DF][FA][Fd] | [Ge][GB]- [GB]4 z2 | [GA][GB][Gc][Fd] [CF]2 [CE]2 | D6 z2 |] %16
V:2
 x8 | x8 | x8 | x8 | x8 | x8 | x8 | x8 | x8 | x8 | x8 | x8 | x4 D x3 | x8 | x8 | D6 x2 |] %16
V:3
 [D,D]3 [D,D] [D,D][D,D][D,D][D,D] | [D,D][D,A,]- [D,A,]4 z2 | %2
 [A,,A,]3 [A,,G,] [A,,G,][A,,G,][A,,E,][A,,A,] | [D,A,]6 z2 | [D,D]3 [D,D] [D,D][D,D][D,D][D,D] | %5
 [D,D][D,A,]- [D,A,]4 z2 | [E,^G,]3 [E,A,] [E,B,][E,A,][E,G,][E,G,] | [A,,A,]6 z2 | %8
 [D,A,]3 [F,A,] [G,D][G,D][G,D][G,D] | [D,D][D,D]- [D,D]4 z2 | %10
 [D,A,]3 [D,A,] [G,D][G,D][F,A,][D,A,] | [A,,A,]6 z2 | [D,A,]3 [D,G,] [D,F,][D,A,][D,D][D,A,] | %13
 [G,B,][G,D]- [G,D]4 z2 | [A,C][A,D][A,E][A,D] [A,,A,]2 [A,,G,]2 | [D,F,]6 z2 |] %16

